packages/appstore/src/assets/svgs/wallets/wallets-upgrade-desktop.svg

<svg width="522" height="180" viewBox="0 0 522 180" fill="none" xmlns="http://www.w3.org/2000/svg">
<path d="M77.9496 79.5598L70.3596 81.1698L61.7296 40.5898L59.0696 41.1498L67.6996 81.7298L60.1096 83.3398C58.7896 83.6198 57.9496 84.9198 58.2296 86.2298L78.2196 180.28H101.86L80.8496 81.4198C80.5696 80.0998 79.2696 79.2598 77.9596 79.5398L77.9496 79.5598Z" fill="#FF444F"/>
<path d="M23.3787 121.699C23.0987 120.379 21.7987 119.539 20.4887 119.819L12.8987 121.429L4.26867 80.8594L1.60867 81.4194L10.2387 121.999L2.64867 123.609C1.32867 123.889 0.488666 125.189 0.768666 126.499L12.1987 180.289H35.8387L23.3787 121.689V121.699Z" fill="#FF444F"/>
<path d="M103.481 44.3606L95.8909 45.9706L87.2609 5.39062L84.6008 5.95062L93.2308 46.5306L85.6409 48.1406C84.3209 48.4206 83.4809 49.7206 83.7609 51.0306L111.231 180.291H134.871L106.371 46.2306C106.091 44.9106 104.791 44.0706 103.481 44.3506V44.3606Z" fill="#FF444F"/>
<path d="M137.321 48.2395L129.731 49.8495L121.101 9.26953L118.441 9.82953L127.071 50.4095L119.481 52.0195C118.161 52.2995 117.321 53.5995 117.601 54.9095L144.251 180.28H167.891L140.221 50.0995C139.941 48.7795 138.641 47.9395 137.331 48.2195L137.321 48.2395Z" fill="#85ACB0"/>
<path d="M36.7893 29.45C36.5093 28.13 35.2093 27.29 33.8993 27.57L26.3093 29.18L20.0893 0H17.3093L23.6293 29.75L16.0393 31.36C14.7193 31.64 13.8793 32.94 14.1593 34.25L45.1993 180.29H68.8393L36.7893 29.45Z" fill="#85ACB0"/>
<path d="M172.711 59.4192L165.121 61.0292L156.491 20.4492L153.831 21.0092L162.461 61.5892L154.871 63.1992C153.551 63.4792 152.711 64.7792 152.991 66.0892L177.261 180.279H200.901L175.611 61.2792C175.331 59.9592 174.031 59.1192 172.721 59.3992L172.711 59.4192Z" fill="#FF444F"/>
<path d="M201.368 38.96L193.778 40.57L185.148 0L182.488 0.56L191.118 41.14L183.528 42.75C182.208 43.03 181.368 44.33 181.648 45.64L210.268 180.29H233.908L204.268 40.83C203.988 39.51 202.688 38.67 201.378 38.95L201.368 38.96Z" fill="#85ACB0"/>
<path d="M204.949 0L243.269 180.3H266.909L228.589 0H204.949Z" fill="#85ACB0"/>
<path d="M260.782 7.89L253.192 9.5L251.172 0H248.392L250.532 10.07L242.942 11.68C241.622 11.96 240.782 13.26 241.062 14.57L276.292 180.3H299.932L263.682 9.76C263.402 8.44 262.102 7.6 260.792 7.88L260.782 7.89Z" fill="#FF444F"/>
<path d="M270.969 0L309.299 180.3H332.939L294.609 0H270.969Z" fill="#85ACB0"/>
<path d="M325.618 2.33L318.028 3.94L317.188 0H314.408L315.368 4.51L307.778 6.12C306.458 6.4 305.618 7.7 305.898 9.01L342.308 180.3H365.948L328.518 4.21C328.238 2.89 326.938 2.05 325.628 2.33H325.618Z" fill="#FF444F"/>
<path d="M336.992 0L375.322 180.3H398.962L360.632 0H336.992Z" fill="#FF444F"/>
<path d="M370 0L408.33 180.3H431.97L393.64 0H370Z" fill="#85ACB0"/>
<path d="M403.008 0L441.338 180.3H464.978L426.648 0H403.008Z" fill="#FF444F"/>
<path d="M436.031 0L474.351 180.3H497.991L459.671 0H436.031Z" fill="#FF444F"/>
<path d="M507.359 180.3H530.999L492.679 0H469.039L507.359 180.3Z" fill="#85ACB0"/>
</svg>

<svg width="522" height="180" viewBox="0 0 522 180" fill="none" xmlns="http://www.w3.org/2000/svg"><path d="m77.95 79.56-7.59 1.61-8.63-40.58-2.66.56 8.63 40.58-7.59 1.61a2.439 2.439 0 0 0-1.88 2.89l19.99 94.05h23.64L80.85 81.42a2.439 2.439 0 0 0-2.89-1.88l-.01.02Zm-54.571 42.139a2.439 2.439 0 0 0-2.89-1.88l-7.59 1.61-8.63-40.57-2.66.56 8.63 40.58-7.59 1.61a2.439 2.439 0 0 0-1.88 2.89l11.43 53.79h23.64l-12.46-58.6v.01Zm80.102-77.339-7.59 1.61-8.63-40.58-2.66.56 8.63 40.58-7.59 1.61a2.439 2.439 0 0 0-1.88 2.89l27.47 129.261h23.64l-28.5-134.06a2.439 2.439 0 0 0-2.89-1.88v.01Z" fill="#FF444F"/><path d="m137.321 48.24-7.59 1.61-8.63-40.58-2.66.56 8.63 40.58-7.59 1.61a2.439 2.439 0 0 0-1.88 2.89l26.65 125.37h23.64L140.221 50.1a2.439 2.439 0 0 0-2.89-1.88l-.01.02ZM36.79 29.45a2.439 2.439 0 0 0-2.89-1.88l-7.59 1.61L20.09 0h-2.78l6.32 29.75-7.59 1.61a2.439 2.439 0 0 0-1.88 2.89L45.2 180.29h23.64L36.79 29.45Z" fill="#85ACB0"/><path d="m172.711 59.42-7.59 1.61-8.63-40.58-2.66.56 8.63 40.58-7.59 1.61a2.439 2.439 0 0 0-1.88 2.89l24.27 114.189h23.64l-25.29-119a2.439 2.439 0 0 0-2.89-1.88l-.01.02Z" fill="#FF444F"/><path d="m201.368 38.96-7.59 1.61L185.148 0l-2.66.56 8.63 40.58-7.59 1.61a2.439 2.439 0 0 0-1.88 2.89l28.62 134.65h23.64l-29.64-139.46a2.439 2.439 0 0 0-2.89-1.88l-.01.01ZM204.949 0l38.32 180.3h23.64L228.589 0h-23.64Z" fill="#85ACB0"/><path d="m260.782 7.89-7.59 1.61-2.02-9.5h-2.78l2.14 10.07-7.59 1.61a2.439 2.439 0 0 0-1.88 2.89l35.23 165.73h23.64L263.682 9.76a2.439 2.439 0 0 0-2.89-1.88l-.01.01Z" fill="#FF444F"/><path d="m270.969 0 38.33 180.3h23.64L294.609 0h-23.64Z" fill="#85ACB0"/><path d="m325.618 2.33-7.59 1.61-.84-3.94h-2.78l.96 4.51-7.59 1.61a2.439 2.439 0 0 0-1.88 2.89l36.41 171.29h23.64L328.518 4.21a2.439 2.439 0 0 0-2.89-1.88h-.01ZM336.992 0l38.33 180.3h23.64L360.632 0h-23.64Z" fill="#FF444F"/><path d="m370 0 38.33 180.3h23.64L393.64 0H370Z" fill="#85ACB0"/><path d="m403.008 0 38.33 180.3h23.64L426.648 0h-23.64Zm33.023 0 38.32 180.3h23.64L459.671 0h-23.64Z" fill="#FF444F"/><path d="M507.359 180.3h23.64L492.679 0h-23.64l38.32 180.3Z" fill="#85ACB0"/></svg>
